docs/public/static/branding/product-advanced-dark.svg

<svg fill="none" height="32" viewBox="0 0 32 32" width="32" xmlns="http://www.w3.org/2000/svg" xmlns:xlink="http://www.w3.org/1999/xlink"><clipPath id="a"><path d="m0 0h32v32h-32z"/></clipPath><g clip-path="url(#a)"><circle cx="16" cy="16" fill="#132f4c" r="16"/><path d="m16.6171 9.32119 5.383 3.07601 5.383-3.07601c-.1391-.23917-.3402-.44231-.5888-.58445-.0001-.00007.0001.00008 0 0l-4.0004-2.28593c-.4917-.281-1.0954-.28108-1.5872-.00025-.0002.00009.0001-.00008 0 0l-4.0004 2.28596c-.0001.00005 0-.00004 0 0-.2487.14215-.4501.34545-.5892.58467z" fill="#5090d3"/><path d="m16.4 10.1257v4.543c0 .5741.3077 1.1043.8062 1.3892l4 2.2857c.0002.0001-.0002-.0001 0 0 .2458.1403.5201.2108.7938.2108v-6.1572l-5.383-3.07602c-.1398.24026-.217.51687-.217.80452z" fill="#1e4976"/><path d="m22.793 18.3441c-.2457.1402-.5194.2103-.793.2103v-6.1572l5.383-3.07602c.1398.24026.217.51687.217.80452v4.543c0 .5741-.3077 1.1043-.8062 1.3892z" fill="#173a5e"/><path d="m4.61707 9.32119 5.38303 3.07601 5.383-3.07601c-.1391-.23917-.3402-.44231-.5888-.58445-.0001-.00007.0001.00008 0 0l-4.0004-2.28593c-.4917-.281-1.0954-.28108-1.58721-.00025-.00014.00009.00014-.00008 0 0l-4.00043 2.28596c-.00008.00005.00008-.00004 0 0-.24865.14215-.45004.34545-.58919.58467z" fill="#5090d3"/><path d="m4.40002 10.1257v4.543c0 .5741.30766 1.1043.80618 1.3892l4 2.2857c.00016.0001-.00016-.0001 0 0 .24583.1403.52006.2108.7938.2108v-6.1572l-5.38299-3.07602c-.13976.24026-.21699.51687-.21699.80452z" fill="#1e4976"/><path d="m10.793 18.3441c-.2457.1402-.5194.2103-.793.2103v-6.1572l5.383-3.07602c.1398.24026.217.51687.217.80452v4.543c0 .5741-.3077 1.1043-.8062 1.3892z" fill="#173a5e"/><path d="m10.6171 12.9212 5.383 3.076 5.383-3.076c-.1391-.2392-.3402-.4423-.5888-.5845-.0001 0 .0001.0001 0 0l-4.0004-2.2859c-.4917-.28099-1.0954-.28107-1.5872-.0002-.0002 0 .0001-.0001 0 0l-4.0004 2.2859c-.0001.0001 0 0 0 0-.2487.1422-.4501.3455-.5892.5847z" fill="#5090d3"/><path d="m10.4 13.7257v4.543c0 .5741.3077 1.1043.8062 1.3892l4 2.2857c.0002.0001-.0002-.0001 0 0 .2458.1403.5201.2108.7938.2108v-6.1572l-5.383-3.076c-.1398.2402-.217.5168-.217.8045z" fill="#1e4976"/><path d="m16.793 21.9441c-.2457.1402-.5194.2103-.793.2103v-6.1572l5.383-3.076c.1398.2402.217.5168.217.8045v4.543c0 .5741-.3077 1.1043-.8062 1.3892z" fill="#173a5e"/><path d="m16.6171 16.5212 5.383 3.076 5.383-3.076c-.1391-.2392-.3402-.4423-.5888-.5845-.0001 0 .0001.0001 0 0l-4.0004-2.2859c-.4917-.281-1.0954-.2811-1.5872-.0002-.0002 0 .0001-.0001 0 0l-4.0004 2.2859c-.0001.0001 0 0 0 0-.2487.1422-.4501.3455-.5892.5847z" fill="#5090d3"/><path d="m16.4 17.3257v4.543c0 .5741.3077 1.1043.8062 1.3892l4 2.2857c.0002.0001-.0002-.0001 0 0 .2458.1403.5201.2108.7938.2108v-6.1572l-5.383-3.076c-.1398.2402-.217.5168-.217.8045z" fill="#1e4976"/><path d="m22.793 25.5441c-.2457.1402-.5194.2103-.793.2103v-6.1572l5.383-3.076c.1398.2402.217.5168.217.8045v4.543c0 .5741-.3077 1.1043-.8062 1.3892z" fill="#173a5e"/><path d="m4.61707 16.5212 5.38303 3.076 5.383-3.076c-.1391-.2392-.3402-.4423-.5888-.5845-.0001 0 .0001.0001 0 0l-4.0004-2.2859c-.4917-.281-1.0954-.2811-1.58721-.0002-.00014 0 .00014-.0001 0 0l-4.00043 2.2859c-.00008.0001.00008 0 0 0-.24865.1422-.45004.3455-.58919.5847z" fill="#5090d3"/><path d="m4.40002 17.3257v4.543c0 .5741.30766 1.1043.80618 1.3892l4 2.2857c.00016.0001-.00016-.0001 0 0 .24583.1403.52006.2108.7938.2108v-6.1572l-5.38299-3.076c-.13976.2402-.21699.5168-.21699.8045z" fill="#1e4976"/><path d="m10.793 25.5441c-.2457.1402-.5194.2103-.793.2103v-6.1572l5.383-3.076c.1398.2402.217.5168.217.8045v4.543c0 .5741-.3077 1.1043-.8062 1.3892z" fill="#173a5e"/></g></svg>

<svg width="32" height="32" viewBox="0 0 32 32" fill="none" xmlns="http://www.w3.org/2000/svg">
<g clip-path="url(#clip0_6060_47950)">
<circle cx="16" cy="16" r="16" fill="#132F4C"/>
<path d="M16.6171 9.32119L22.0001 12.3972L27.3831 9.32119C27.244 9.08202 27.0429 8.87888 26.7943 8.73674C26.7942 8.73667 26.7944 8.73682 26.7943 8.73674L22.7939 6.45081C22.3022 6.16981 21.6985 6.16973 21.2067 6.45056C21.2065 6.45065 21.2068 6.45048 21.2067 6.45056L17.2063 8.73652C17.2062 8.73657 17.2063 8.73648 17.2063 8.73652C16.9576 8.87867 16.7562 9.08197 16.6171 9.32119Z" fill="#5090D3"/>
<path d="M16.4 10.1257V14.6687C16.4 15.2428 16.7077 15.773 17.2062 16.0579L21.2062 18.3436C21.2064 18.3437 21.206 18.3435 21.2062 18.3436C21.452 18.4839 21.7263 18.5544 22 18.5544V12.3972L16.617 9.32118C16.4772 9.56144 16.4 9.83805 16.4 10.1257Z" fill="#1E4976"/>
<path d="M22.793 18.3441C22.5473 18.4843 22.2736 18.5544 22 18.5544V12.3972L27.383 9.32118C27.5228 9.56144 27.6 9.83805 27.6 10.1257V14.6687C27.6 15.2428 27.2923 15.773 26.7938 16.0579L22.793 18.3441Z" fill="#173A5E"/>
<path d="M4.61707 9.32119L10.0001 12.3972L15.3831 9.32119C15.244 9.08202 15.0429 8.87888 14.7943 8.73674C14.7942 8.73667 14.7944 8.73682 14.7943 8.73674L10.7939 6.45081C10.3022 6.16981 9.6985 6.16973 9.20669 6.45056C9.20655 6.45065 9.20683 6.45048 9.20669 6.45056L5.20626 8.73652C5.20618 8.73657 5.20634 8.73648 5.20626 8.73652C4.95761 8.87867 4.75622 9.08197 4.61707 9.32119Z" fill="#5090D3"/>
<path d="M4.40002 10.1257V14.6687C4.40002 15.2428 4.70768 15.773 5.2062 16.0579L9.2062 18.3436C9.20636 18.3437 9.20604 18.3435 9.2062 18.3436C9.45203 18.4839 9.72626 18.5544 10 18.5544V12.3972L4.61701 9.32118C4.47725 9.56144 4.40002 9.83805 4.40002 10.1257Z" fill="#1E4976"/>
<path d="M10.793 18.3441C10.5473 18.4843 10.2736 18.5544 10 18.5544V12.3972L15.383 9.32118C15.5228 9.56144 15.6 9.83805 15.6 10.1257V14.6687C15.6 15.2428 15.2923 15.773 14.7938 16.0579L10.793 18.3441Z" fill="#173A5E"/>
<path d="M10.6171 12.9212L16.0001 15.9972L21.3831 12.9212C21.244 12.682 21.0429 12.4789 20.7943 12.3367C20.7942 12.3367 20.7944 12.3368 20.7943 12.3367L16.7939 10.0508C16.3022 9.76981 15.6985 9.76973 15.2067 10.0506C15.2065 10.0506 15.2068 10.0505 15.2067 10.0506L11.2063 12.3365C11.2062 12.3366 11.2063 12.3365 11.2063 12.3365C10.9576 12.4787 10.7562 12.682 10.6171 12.9212Z" fill="#5090D3"/>
<path d="M10.4 13.7257V18.2687C10.4 18.8428 10.7077 19.373 11.2062 19.6579L15.2062 21.9436C15.2064 21.9437 15.206 21.9435 15.2062 21.9436C15.452 22.0839 15.7263 22.1544 16 22.1544V15.9972L10.617 12.9212C10.4772 13.1614 10.4 13.438 10.4 13.7257Z" fill="#1E4976"/>
<path d="M16.793 21.9441C16.5473 22.0843 16.2736 22.1544 16 22.1544V15.9972L21.383 12.9212C21.5228 13.1614 21.6 13.438 21.6 13.7257V18.2687C21.6 18.8428 21.2923 19.373 20.7938 19.6579L16.793 21.9441Z" fill="#173A5E"/>
<path d="M16.6171 16.5212L22.0001 19.5972L27.3831 16.5212C27.244 16.282 27.0429 16.0789 26.7943 15.9367C26.7942 15.9367 26.7944 15.9368 26.7943 15.9367L22.7939 13.6508C22.3022 13.3698 21.6985 13.3697 21.2067 13.6506C21.2065 13.6506 21.2068 13.6505 21.2067 13.6506L17.2063 15.9365C17.2062 15.9366 17.2063 15.9365 17.2063 15.9365C16.9576 16.0787 16.7562 16.282 16.6171 16.5212Z" fill="#5090D3"/>
<path d="M16.4 17.3257V21.8687C16.4 22.4428 16.7077 22.973 17.2062 23.2579L21.2062 25.5436C21.2064 25.5437 21.206 25.5435 21.2062 25.5436C21.452 25.6839 21.7263 25.7544 22 25.7544V19.5972L16.617 16.5212C16.4772 16.7614 16.4 17.038 16.4 17.3257Z" fill="#1E4976"/>
<path d="M22.793 25.5441C22.5473 25.6843 22.2736 25.7544 22 25.7544V19.5972L27.383 16.5212C27.5228 16.7614 27.6 17.038 27.6 17.3257V21.8687C27.6 22.4428 27.2923 22.973 26.7938 23.2579L22.793 25.5441Z" fill="#173A5E"/>
<path d="M4.61707 16.5212L10.0001 19.5972L15.3831 16.5212C15.244 16.282 15.0429 16.0789 14.7943 15.9367C14.7942 15.9367 14.7944 15.9368 14.7943 15.9367L10.7939 13.6508C10.3022 13.3698 9.6985 13.3697 9.20669 13.6506C9.20655 13.6506 9.20683 13.6505 9.20669 13.6506L5.20626 15.9365C5.20618 15.9366 5.20634 15.9365 5.20626 15.9365C4.95761 16.0787 4.75622 16.282 4.61707 16.5212Z" fill="#5090D3"/>
<path d="M4.40002 17.3257V21.8687C4.40002 22.4428 4.70768 22.973 5.2062 23.2579L9.2062 25.5436C9.20636 25.5437 9.20604 25.5435 9.2062 25.5436C9.45203 25.6839 9.72626 25.7544 10 25.7544V19.5972L4.61701 16.5212C4.47725 16.7614 4.40002 17.038 4.40002 17.3257Z" fill="#1E4976"/>
<path d="M10.793 25.5441C10.5473 25.6843 10.2736 25.7544 10 25.7544V19.5972L15.383 16.5212C15.5228 16.7614 15.6 17.038 15.6 17.3257V21.8687C15.6 22.4428 15.2923 22.973 14.7938 23.2579L10.793 25.5441Z" fill="#173A5E"/>
</g>
<defs>
<clipPath id="clip0_6060_47950">
<rect width="32" height="32" fill="white"/>
</clipPath>
</defs>
</svg>
